X: 91
T:Titin
R:Java
O:France
A:Provence
C:A. Fabri
N:Pour galoubet/tambourin
Q:1/4=160
M:3/4
L:1/8
K:Bbmaj
B3/2^F/2 G3/2A/2 B3/2c/2|d3/2B/2 G3/2B/2 d3/2g/2|e3/2c/2 G3/2c/2 e3/2g/2|d4z2|c3/2=B/2 c3/2d/2 e3/2c/2|
 [1B3/2A/2 B3/2c/2 d3/2B/2|A3/2^c/2 =e3/2g/2 b3/2a/2|(g2^f) z3:| [2B3/2A/2 B3/2c/2 d2| (3d^cd (3=ede (3^fef|g zg zz2
|:f3/2g/2 f3/2e/2 d3/2c/2|c3/2B/2 B3/2A/2 B2|d3/2e/2 d3/2c/2 B3/2A/2|A3/2G/2 G3/2^F/2 G2|
G3/2^F/2 G3/2A/2 B3/2G/2| [1F3/2B/2 d4|^c3/2=e/2 g3/2b/2 a3/2g/2|(g4^f2):|
 [2F3/2B/2 d4| (3d^cd (3=ede (3^fef|g zg zz2|:F3/2=E/2 F3/2G/2 A3/2F/2|B3/2A/2 B3/2c/2 d3/2B/2|
G3/2^F/2 G3/2A/2 =B3/2G/2|c3/2=B/2 c3/2d/2 e2| (3(g^fg) a2g2| (3(f=ef) g2f2| (3(ede) f2e2|
d3/2^c/2 d3/2e/2 f2| (3(g^fg) a2g2| (3(f=ef) g2f2| (3(f=ef) (3(gfg) (3(aga)|b6|]
%%footer $D   Galouvielle-MBe 2008 \nMarche (--)
